X: 1
T: America Exultant
M: C|
L: 1/4
P: Flute
%Q:1/2=120
K: F
"8"z4 [|:\
z(f/e/f)(a/^g/ | a)(c'/=b/c')z | z(a/^g/a)(c'/=b/2 | c')(f'/e'/f')z |\
z(c'/=b/c')g | c'gc'z | z(a/^g/a)f | afaz | 
z(f/e/f)(a/^g/ | a) (c'/=b/c')z | z(a/^g/a)(c'/=b/ | c')(f'/e'/ f')z |\
z(c'/=b/c')a | g^ga=b | c'(c'/=b/c')g |1 c'zz2 :|]2 c'zz2 ||
|:\
z(e/f/ g/a/b/c'/) | Td'3c' | f'(c'/d'/ c'/b/a/g/ | f)zz2 |\
z(^c/d/ e/f/g/a/) | Tb3a | d'(a/b/ a/g/f/e/ | d)zz2 |
z(g/a/ b/c'/d'/e'/) | Tf'4 | z(d/e/ f/g/a/b/) | Tc'4 |\
z(e/f/ g/a/b/c'/) | Td'3c' | f'(g/a/ b/c'/d'/e'/ |1 f')zz2 :|]2 f')zf'z || 
T:America
"8"z4 ||\
f(G/A/ B/c/d/e/ | f)dgd | e(c/d/e)f | g(=B/c/ d/e/f/g/ |\
a)(=B/c/ d/e/f/g/ | a)fbf | a(f/g/a)g | e(A/B/ c/d/e/f/ | 
g)(g/a/ b/c'/d'/e'/ | f')c'e'c' |\
f'(e'/d'/ c'/b/a/g/ | f)(e/f/ g/a/b/=b/ |:\
c')(d/e/ f/g/a/b/ | c')(a/b/c')(a/b/ | c')(=B/c/ d/e/f/g/ | 
a)(c/d/ e/f/g/a/ |\
b)(c/d/ e/f/g/a/ | b)(g/a/b)(g/a/ |\
b)(A/B/ c/d/e/f/ | g)(=B/c/ d/e/f/g/ |\
a)(f/g/a)f | bagf | 
a(f/g/a)b | c'zd'(c'/b/ |\
a)(A/B/ c/d/e/f/ | g)(g/a/ b/c'/d'/e'/ |\
f')(e'/d'/ c'/b/a/g/ |1 f)(e/f/ g/a/b/=b/ :|]2 fzf'z || 
